svgs/light/mobile.svg

<svg xmlns="http://www.w3.org/2000/svg" viewBox="0 0 384 512"><!-- Font Awesome Pro 6.0.0-alpha2 by @fontawesome - https://fontawesome.com License - https://fontawesome.com/license (Commercial License) --><path d="M288 0H96C60.654 0 32 28.654 32 64V448C32 483.346 60.654 512 96 512H288C323.346 512 352 483.346 352 448V64C352 28.654 323.346 0 288 0ZM320 448C320 465.645 305.645 480 288 480H96C78.355 480 64 465.645 64 448V64C64 46.355 78.355 32 96 32H288C305.645 32 320 46.355 320 64V448ZM224 400H160C151.164 400 144 407.162 144 416C144 424.836 151.164 432 160 432H224C232.836 432 240 424.836 240 416C240 407.162 232.836 400 224 400Z"/></svg>

<svg xmlns="http://www.w3.org/2000/svg" viewBox="0 0 384 512"><!--! Font Awesome Pro 6.3.0 by @fontawesome - https://fontawesome.com License - https://fontawesome.com/license (Commercial License) Copyright 2023 Fonticons, Inc. --><path d="M288 0H96C60.65 0 32 28.65 32 64v384c0 35.35 28.65 64 64 64h192c35.35 0 64-28.65 64-64V64C352 28.65 323.3 0 288 0zM320 448c0 17.64-14.36 32-32 32H96c-17.64 0-32-14.36-32-32V64c0-17.64 14.36-32 32-32h192c17.64 0 32 14.36 32 32V448zM224 400H160c-8.836 0-16 7.162-16 16c0 8.836 7.164 16 16 16h64c8.836 0 16-7.164 16-16C240 407.2 232.8 400 224 400z"/></svg>
